src/ios-stopwatch.svg

<?xml version="1.0" encoding="utf-8"?>
<!-- Generated by IcoMoon.io -->
<!DOCTYPE svg PUBLIC "-//W3C//DTD SVG 1.1//EN" "http://www.w3.org/Graphics/SVG/1.1/DTD/svg11.dtd">
<svg version="1.1" xmlns="http://www.w3.org/2000/svg" xmlns:xlink="http://www.w3.org/1999/xlink" width="512" height="512" viewBox="0 0 512 512">
<path fill="#000000" d="M397.6 146.7l-1.8-1.7h18.4l8.5 7.8 22.5-22.8-40.8-40.3-23.2 22.3 8.8 9.2v18.6l-5-4.7c-31.3-28.3-70-45.2-113-48.9v-38.2h-32v38h-2c-43.7 3-85 22.5-116 53v-17.8l8.9-9.2-22.9-22.2-40.8 40.2 22.5 22.8 8.5-7.8h17.8c-0.3 0-0.7 0.7-1 1.1-32.8 35.1-51 80.9-51 128.5 0 104.4 86.1 189.4 192.1 189.4 105.8 0 191.9-84.9 191.9-189.3 0-47.6-18-93.1-50.4-128zM264 318.2l-8 17.8-8-17.8c-14-3.5-24-15.8-24-30.5 0-13.8 11.5-26 24-30.3v-129.4h16v129.3c13.5 3.7 24 15.9 24 30.4 0 14.7-10 27-24 30.5z"></path>
</svg>

<?xml version="1.0" encoding="utf-8"?>
<!-- Generator: Adobe Illustrator 16.2.1, SVG Export Plug-In . SVG Version: 6.00 Build 0)  -->
<!DOCTYPE svg PUBLIC "-//W3C//DTD SVG 1.1//EN" "http://www.w3.org/Graphics/SVG/1.1/DTD/svg11.dtd">
<svg version="1.1" id="Layer_1" xmlns="http://www.w3.org/2000/svg" xmlns:xlink="http://www.w3.org/1999/xlink" x="0px" y="0px"
	 width="512px" height="512px" viewBox="0 0 512 512" style="enable-background:new 0 0 512 512;" xml:space="preserve">
<g>
	<path d="M397.6,146.7l-1.8-1.7h18.4l8.5,7.8l22.5-22.8l-40.8-40.3L381.2,112l8.8,9.2v18.6l-5-4.7c-31.3-28.3-70-45.2-113-48.9V48
		h-32v38h-2c-43.7,3-85,22.5-116,53v-17.8l8.9-9.2L108,89.8L67.2,130l22.5,22.8l8.5-7.8H116c-0.3,0-0.7,0.7-1,1.1
		C82.2,181.2,64,227,64,274.6C64,379,150.1,464,256.1,464C361.9,464,448,379.1,448,274.7C448,227.1,430,181.6,397.6,146.7z
		 M264,318.2l-8,17.8l-8-17.8c-14-3.5-24-15.8-24-30.5c0-13.8,11.5-26,24-30.3V128h16v129.3c13.5,3.7,24,15.9,24,30.4
		C288,302.4,278,314.7,264,318.2z"/>
</g>
</svg>
